app/images/shopping_cart.svg

<svg width="22" height="20" viewBox="0 0 22 20" fill="none" xmlns="http://www.w3.org/2000/svg">
<path fill-rule="evenodd" clip-rule="evenodd" d="M17.2963 9.97C16.9563 10.59 16.2963 11 15.5463 11H8.09634L6.99634 13H18.9963V15H6.99634C5.47634 15 4.51634 13.37 5.24634 12.03L6.59634 9.59L2.99634 2H0.996338V0H4.26634L5.20634 2H20.0063C20.7663 2 21.2463 2.82 20.8763 3.48L17.2963 9.97ZM18.3063 4H6.15634L8.52634 9H15.5463L18.3063 4ZM6.99634 16C5.89634 16 5.00634 16.9 5.00634 18C5.00634 19.1 5.89634 20 6.99634 20C8.09634 20 8.99634 19.1 8.99634 18C8.99634 16.9 8.09634 16 6.99634 16ZM15.0063 18C15.0063 16.9 15.8963 16 16.9963 16C18.0963 16 18.9963 16.9 18.9963 18C18.9963 19.1 18.0963 20 16.9963 20C15.8963 20 15.0063 19.1 15.0063 18Z" fill="#4B4B4B"/>
</svg>

<svg width="22" height="20" fill="none" xmlns="http://www.w3.org/2000/svg"><path fill-rule="evenodd" clip-rule="evenodd" d="M17.296 9.97c-.34.62-1 1.03-1.75 1.03h-7.45l-1.1 2h12v2h-12c-1.52 0-2.48-1.63-1.75-2.97l1.35-2.44L2.996 2h-2V0h3.27l.94 2h14.8c.76 0 1.24.82.87 1.48l-3.58 6.49zM18.306 4H6.156l2.37 5h7.02l2.76-5zM6.996 16c-1.1 0-1.99.9-1.99 2s.89 2 1.99 2 2-.9 2-2-.9-2-2-2zm8.01 2c0-1.1.89-2 1.99-2s2 .9 2 2-.9 2-2 2-1.99-.9-1.99-2z" fill="#4B4B4B"/></svg>
